public/img/field-6.svg

<svg width="64" height="71" viewBox="0 0 64 71" fill="none" xmlns="http://www.w3.org/2000/svg">
<path d="M63.6271 26.9177C63.3312 26.622 62.9064 26.4939 62.4966 26.5762L51.7245 28.7442C51.2729 28.8352 50.9078 29.1672 50.7745 29.608C50.6413 30.049 50.7614 30.5275 51.0871 30.8534L52.5445 32.3108L46.8247 38.0306L42.3968 33.6027C42.1623 33.3683 41.8445 33.2366 41.513 33.2366C41.1815 33.2366 40.8637 33.3683 40.6292 33.6027L35.1959 39.0361L37.2339 31.713C37.7294 29.9327 37.3724 28.0679 36.2546 26.5963C35.57 25.6952 34.666 25.0307 33.6441 24.65L35.2733 19.9959C35.7229 20.0353 36.1714 20.0555 36.6147 20.0555C40.224 20.0555 43.743 18.7833 46.5236 16.4736L46.8215 16.2263C48.2875 15.0082 48.538 12.8915 47.392 11.4076C46.811 10.6551 45.9713 10.1831 45.0276 10.0789C44.0835 9.97449 43.1611 10.2515 42.4307 10.8583L42.0923 11.1394C41.5937 11.5535 41.0485 11.9111 40.4718 12.2019C38.5445 13.1741 36.1377 12.7412 34.5384 11.1584C36.8647 10.4378 38.5593 8.26624 38.5593 5.70619C38.5595 2.5598 35.9995 0 32.853 0C29.7064 0 27.1466 2.5598 27.1466 5.70632C27.1466 6.95847 27.5529 8.11688 28.2393 9.05881C26.9411 9.33829 25.7728 10.0076 24.8789 10.9539C24.8268 10.9997 24.7768 11.0492 24.7315 11.1049C22.5281 13.8114 19.5905 15.7528 16.2367 16.7189C15.3286 16.9806 14.6099 17.5835 14.1786 18.348L11.6168 15.7862C10.4959 14.6654 8.67225 14.6655 7.55121 15.7862L4.19859 19.1389L0.845967 22.4915C0.302884 23.0345 0.00390625 23.7563 0.00390625 24.5244C0.00390625 25.2923 0.303008 26.0141 0.845842 26.5572L10.0833 35.7946C10.6263 36.3376 11.3482 36.6366 12.1161 36.6366C12.8842 36.6366 13.606 36.3375 14.149 35.7946L17.6203 32.3233L15.9743 36.6395C15.7283 37.2844 16.0518 38.0067 16.6968 38.2527C16.8434 38.3086 16.9939 38.3351 17.142 38.3351C17.6454 38.3351 18.12 38.0286 18.3101 37.5303L22.4096 26.781H30.2352H31.588C32.6478 26.781 33.6231 27.2649 34.2642 28.1087C34.9052 28.9525 35.11 30.022 34.8258 31.0428L31.9856 41.2477C31.8579 41.7069 31.4356 42.0277 30.9589 42.0277C30.5312 42.0277 30.2675 41.7934 30.1484 41.6538C30.0292 41.5142 29.8393 41.2169 29.9064 40.7946L31.4176 31.2939C31.4751 30.9325 31.3714 30.5643 31.1339 30.2861C30.8964 30.0078 30.549 29.8476 30.1832 29.8476H27.22C26.7486 29.8476 26.3173 30.1127 26.1045 30.5333C26.0315 30.6775 18.7795 45.0166 16.3357 49.8617C16.0911 50.3469 15.5592 50.6238 15.0139 50.5492L14.9546 50.5411C14.5825 50.4909 14.2593 50.2769 14.0675 49.9541C13.8756 49.6312 13.8425 49.2449 13.9763 48.8942L14.7465 46.8747C14.9925 46.2297 14.669 45.5075 14.0241 45.2614C13.3793 45.0154 12.6569 45.339 12.4108 45.9839L11.6406 48.0033C11.2333 49.0715 11.3345 50.2478 11.9184 51.2307C12.5022 52.2135 13.4868 52.8652 14.6187 53.0185L14.6779 53.0263C14.8493 53.0497 15.02 53.0608 15.1896 53.0608C16.6048 53.0608 17.9209 52.2701 18.5677 50.9875C20.7023 46.7553 26.5076 35.2754 27.9885 32.3474H28.7188L27.4377 40.4019C27.2736 41.434 27.5686 42.4819 28.2471 43.2767C28.6836 43.788 29.2488 44.1581 29.8745 44.3577L15.9509 58.2813C15.7166 58.5158 15.5848 58.8336 15.5848 59.1651C15.5848 59.4966 15.7166 59.8146 15.9509 60.0489L19.536 63.6339C19.7801 63.8779 20.1 64 20.4199 64C20.7397 64 21.0596 63.8779 21.3037 63.6339L28.1958 56.7418C28.6838 56.2537 28.6838 55.4623 28.1958 54.9741C27.7075 54.4861 26.9164 54.4861 26.428 54.9741L20.4199 60.9824L18.6025 59.165L41.5132 36.254L45.9412 40.6819C46.1756 40.9163 46.4935 41.048 46.825 41.048C47.1564 41.048 47.4743 40.9163 47.7088 40.6819L55.1961 33.1945C55.6842 32.7064 55.6842 31.9149 55.1961 31.4267L54.5039 30.7345L61.147 29.3976L59.8101 36.0408L58.7813 35.012C58.2931 34.524 57.5019 34.524 57.0136 35.012L46.8248 45.2007L42.3969 40.7728C41.9087 40.2848 41.1175 40.2848 40.6292 40.7728L33.4984 47.9036C33.0103 48.3917 33.0103 49.1831 33.4984 49.6713C33.9866 50.1593 34.7778 50.1593 35.2661 49.6713L41.513 43.4244L45.9409 47.8524C46.4291 48.3403 47.2203 48.3403 47.7086 47.8524L57.8974 37.6636L59.6915 39.4577C60.0172 39.7835 60.496 39.9038 60.9368 39.7703C61.3777 39.6372 61.7098 39.2721 61.8007 38.8204L63.9687 28.0481C64.0511 27.638 63.9229 27.2137 63.6271 26.9177ZM32.853 2.49981C34.6211 2.49981 36.0595 3.93832 36.0595 5.70632C36.0595 7.47443 34.621 8.91295 32.853 8.91295C31.0849 8.91295 29.6464 7.47443 29.6464 5.70632C29.6464 3.93832 31.0849 2.49981 32.853 2.49981ZM20.485 24.6544L18.9638 23.1332C19.6863 22.8975 20.3959 22.6279 21.0905 22.3263L20.485 24.6544ZM16.2667 20.3187C16.1189 19.806 16.416 19.2688 16.9287 19.121C18.9835 18.5291 20.8999 17.6152 22.6266 16.4216L21.9207 19.1352C20.5156 19.9116 19.0196 20.5326 17.464 20.9807C17.4351 20.9889 17.4048 20.9962 17.375 21.0019C17.1444 21.0458 16.9136 20.9999 16.7199 20.8894L16.3538 20.5233C16.3177 20.4594 16.2877 20.3914 16.2667 20.3187ZM9.3187 17.5538C9.39182 17.4807 9.48793 17.4442 9.58393 17.4442C9.67992 17.4442 9.77604 17.4807 9.84903 17.5538L14.4052 22.1099C14.6165 22.3985 14.8685 22.6502 15.1524 22.8571L19.0866 26.7913C19.2328 26.9374 19.2328 27.1754 19.0866 27.3215L16.6178 29.7904L13.8721 27.0447L14.3951 26.5217C14.8831 26.0336 14.8831 25.2422 14.3951 24.754L11.5815 21.9405C11.0933 21.4525 10.3021 21.4525 9.81378 21.9405L9.29082 22.4634L6.84988 20.0225L9.3187 17.5538ZM11.0296 26.352C10.91 26.4716 10.7703 26.4896 10.6977 26.4896C10.6252 26.4896 10.4856 26.4716 10.366 26.3521V26.352L9.98365 25.9698C9.86416 25.8502 9.84616 25.7105 9.84616 25.638C9.84616 25.5654 9.86415 25.4258 9.98377 25.3062L10.6977 24.5923L11.7435 25.638L11.0296 26.352ZM12.3812 34.027C12.2903 34.1178 12.187 34.1368 12.1161 34.1368C12.0454 34.1368 11.9417 34.1178 11.851 34.0269L2.61358 24.7895C2.52271 24.6986 2.50372 24.5951 2.50372 24.5244C2.50372 24.4535 2.52271 24.35 2.61358 24.2593L5.08227 21.7905L7.64007 24.3481C7.44821 24.7454 7.34635 25.1838 7.34635 25.638C7.34635 26.4312 7.65532 27.1768 8.21603 27.7375L8.59825 28.1196V28.1197C9.15896 28.6804 9.90465 28.9894 10.6977 28.9894C11.1519 28.9894 11.5904 28.8877 11.9876 28.6957L14.8502 31.5582L12.3812 34.027ZM30.2351 24.2812H23.1651L25.7328 14.4103C26.192 12.6454 27.7863 11.4129 29.6099 11.4129C30.7364 11.4129 31.7785 11.8671 32.5441 12.6919C34.8924 15.2222 38.6157 15.9385 41.5979 14.434C42.3426 14.0584 43.0465 13.5971 43.69 13.0624L44.0283 12.7813C44.2323 12.6118 44.4896 12.534 44.7534 12.5638C45.0165 12.5928 45.251 12.7248 45.4137 12.9356C45.7278 13.3422 45.6427 13.9559 45.2242 14.3035L44.9265 14.5509C42.5937 16.4887 39.6419 17.5559 36.6149 17.5559C35.9575 17.5559 35.2857 17.5033 34.6179 17.3994C34.0218 17.3059 33.4452 17.6524 33.246 18.2215L31.1247 24.2812H30.2351Z" fill="#472880"/>
<path d="M30.871 51.0961C30.5423 51.0961 30.2198 51.2297 29.9873 51.4624C29.7548 51.6947 29.6211 52.0172 29.6211 52.346C29.6211 52.676 29.7547 52.9972 29.9873 53.2296C30.2198 53.4633 30.5423 53.5959 30.871 53.5959C31.1997 53.5959 31.5222 53.4633 31.7546 53.2296C31.987 52.9972 32.1209 52.6759 32.1209 52.346C32.1209 52.0172 31.9872 51.6947 31.7546 51.4624C31.5222 51.2297 31.1997 51.0961 30.871 51.0961Z" fill="#472880"/>
<path d="M15.3554 43.0142C15.6841 43.0142 16.0066 42.8805 16.2391 42.6479C16.4714 42.4155 16.6053 42.093 16.6053 41.7643C16.6053 41.4356 16.4715 41.1131 16.2391 40.8806C16.0053 40.6481 15.6841 40.5144 15.3554 40.5144C15.0266 40.5144 14.7042 40.648 14.4704 40.8806C14.2381 41.1131 14.1055 41.4356 14.1055 41.7643C14.1055 42.093 14.2381 42.4155 14.4704 42.6479C14.7042 42.8804 15.0254 43.0142 15.3554 43.0142Z" fill="#472880"/>
<ellipse cx="50.5" cy="57" rx="13.5" ry="14" fill="#E30020"/>
</svg>

<svg width="64" height="71" fill="none" xmlns="http://www.w3.org/2000/svg"><path d="M63.627 26.918a1.252 1.252 0 00-1.13-.342l-10.773 2.168a1.25 1.25 0 00-.637 2.11l1.457 1.457-5.72 5.72-4.427-4.428a1.25 1.25 0 00-1.768 0l-5.433 5.433 2.038-7.323a5.816 5.816 0 00-.98-5.117 5.827 5.827 0 00-2.61-1.946l1.63-4.654c.449.04.897.06 1.34.06a15.54 15.54 0 009.91-3.582l.297-.248c1.467-1.218 1.717-3.334.571-4.818a3.44 3.44 0 00-2.364-1.33 3.439 3.439 0 00-2.597.78l-.339.281a8.604 8.604 0 01-1.62 1.063c-1.928.972-4.334.54-5.934-1.044a5.717 5.717 0 004.021-5.452A5.713 5.713 0 0032.853 0a5.713 5.713 0 00-5.706 5.706 5.68 5.68 0 001.092 3.353 6.511 6.511 0 00-3.36 1.895 1.262 1.262 0 00-.148.15 16.957 16.957 0 01-8.494 5.615 3.456 3.456 0 00-2.058 1.629l-2.562-2.562a2.878 2.878 0 00-4.066 0L4.2 19.14.846 22.49a2.856 2.856 0 00-.842 2.033c0 .768.299 1.49.842 2.033l9.237 9.238a2.856 2.856 0 002.033.842c.768 0 1.49-.3 2.033-.842l3.471-3.472-1.646 4.316a1.25 1.25 0 002.336.891l4.1-10.749h9.178c1.06 0 2.035.484 2.676 1.328.641.843.846 1.913.562 2.934l-2.84 10.205a1.07 1.07 0 01-1.027.78 1.05 1.05 0 01-.81-.374c-.12-.14-.31-.437-.243-.86l1.512-9.5a1.25 1.25 0 00-1.235-1.446H27.22a1.25 1.25 0 00-1.115.685c-.073.144-7.326 14.484-9.77 19.329a1.284 1.284 0 01-1.321.687l-.06-.008a1.215 1.215 0 01-.886-.587 1.215 1.215 0 01-.092-1.06l.77-2.02a1.25 1.25 0 00-2.335-.89l-.77 2.02a3.702 3.702 0 00.277 3.227 3.703 3.703 0 002.7 1.788l.06.007a3.783 3.783 0 003.89-2.039c2.134-4.232 7.94-15.712 9.42-18.64h.73l-1.28 8.055a3.56 3.56 0 002.437 3.956L15.95 58.28a1.25 1.25 0 000 1.768l3.585 3.585a1.246 1.246 0 001.768 0l6.892-6.892a1.25 1.25 0 00-1.768-1.768l-6.008 6.008-1.818-1.817 22.911-22.911 4.428 4.428a1.25 1.25 0 001.768 0l7.487-7.488a1.25 1.25 0 000-1.767l-.692-.692 6.643-1.337-1.337 6.643-1.029-1.029a1.25 1.25 0 00-1.767 0L46.823 45.2l-4.427-4.428a1.25 1.25 0 00-1.768 0l-7.13 7.13a1.25 1.25 0 001.767 1.768l6.247-6.247 4.428 4.428a1.25 1.25 0 001.768 0l10.188-10.188 1.794 1.794a1.25 1.25 0 002.11-.638l2.168-10.772a1.25 1.25 0 00-.342-1.13zM32.853 2.5a3.21 3.21 0 013.206 3.206 3.21 3.21 0 01-3.206 3.207 3.21 3.21 0 01-3.207-3.207A3.21 3.21 0 0132.853 2.5zM20.485 24.654l-1.521-1.52a24.13 24.13 0 002.127-.808l-.606 2.328zm-4.218-4.335a.969.969 0 01.662-1.198 19.494 19.494 0 005.698-2.7l-.706 2.714a21.558 21.558 0 01-4.457 1.846.96.96 0 01-.744-.091l-.366-.367a.954.954 0 01-.087-.204zm-6.948-2.765a.374.374 0 01.53 0l4.556 4.556c.212.288.463.54.747.747l3.935 3.934a.375.375 0 010 .53l-2.47 2.47-2.745-2.746.523-.523a1.25 1.25 0 000-1.768l-2.813-2.814a1.25 1.25 0 00-1.768 0l-.523.523-2.441-2.44 2.469-2.47zm1.71 8.798a.468.468 0 01-.663 0l-.382-.382a.468.468 0 010-.664l.714-.714 1.045 1.046-.713.714zm1.352 7.675a.368.368 0 01-.265.11.368.368 0 01-.265-.11l-9.237-9.238a.368.368 0 01-.11-.265c0-.07.019-.174.11-.265l2.468-2.468 2.558 2.557a2.958 2.958 0 00-.294 1.29c0 .793.31 1.539.87 2.1l.382.382c.561.56 1.307.87 2.1.87a2.96 2.96 0 001.29-.294l2.862 2.862-2.469 2.469zm17.854-9.746h-7.07l2.568-9.87a4.007 4.007 0 013.877-2.998 3.96 3.96 0 012.934 1.279c2.348 2.53 6.072 3.246 9.054 1.742a11.1 11.1 0 002.092-1.372l.338-.28a.957.957 0 01.725-.218.96.96 0 01.66.372c.315.406.23 1.02-.189 1.367l-.297.248a13.035 13.035 0 01-8.312 3.005c-.657 0-1.33-.053-1.997-.157a1.249 1.249 0 00-1.372.822l-2.121 6.06h-.89z" fill="#472880"/><path d="M30.871 51.096c-.329 0-.651.134-.884.366a1.259 1.259 0 00-.366.884 1.254 1.254 0 001.25 1.25 1.254 1.254 0 001.25-1.25c0-.329-.134-.651-.366-.884a1.258 1.258 0 00-.884-.366zm-15.516-8.082c.33 0 .652-.134.884-.366a1.26 1.26 0 00.366-.884 1.26 1.26 0 00-.366-.883 1.262 1.262 0 00-.884-.367c-.328 0-.65.134-.885.367a1.259 1.259 0 00-.365.883c0 .329.133.651.365.884.234.232.555.366.885.366z" fill="#472880"/><ellipse cx="50.5" cy="57" rx="13.5" ry="14" fill="#E30020"/></svg>
